assets/images/img-guide-button.svg

<svg xmlns="http://www.w3.org/2000/svg" width="96" height="96" fill="none" viewBox="0 0 96 96"><g clip-path="url(#clip0_391_14366)"><rect width="96" height="96" fill="#464C59"/><path fill="#fff" d="M15 25H145V69H15V25Z"/><path fill="#232323" fill-rule="evenodd" d="M36.136 52V40.8H40.36C41.5227 40.8 42.4027 41.072 43 41.616C43.5973 42.16 43.896 42.8427 43.896 43.664C43.896 44.3787 43.704 44.9493 43.32 45.376C42.936 45.792 42.472 46.0747 41.928 46.224C42.3547 46.3093 42.7333 46.48 43.064 46.736C43.4053 46.992 43.672 47.312 43.864 47.696C44.056 48.08 44.152 48.496 44.152 48.944C44.152 49.52 44.008 50.0427 43.72 50.512C43.4427 50.9707 43.032 51.3333 42.488 51.6C41.944 51.8667 41.2773 52 40.488 52H36.136ZM37.832 45.6H40.152C40.8027 45.6 41.2987 45.4507 41.64 45.152C41.9813 44.8427 42.152 44.4213 42.152 43.888C42.152 43.3653 41.9813 42.9493 41.64 42.64C41.3093 42.3307 40.8027 42.176 40.12 42.176H37.832V45.6ZM37.832 50.608H40.264C40.9467 50.608 41.4747 50.448 41.848 50.128C42.232 49.808 42.424 49.36 42.424 48.784C42.424 48.208 42.2267 47.7547 41.832 47.424C41.4373 47.0827 40.904 46.912 40.232 46.912H37.832V50.608ZM49.125 52.192C48.165 52.192 47.4077 51.8933 46.853 51.296C46.309 50.6987 46.037 49.808 46.037 48.624V44.064H47.733V48.448C47.733 49.984 48.3623 50.752 49.621 50.752C50.2503 50.752 50.7677 50.528 51.173 50.08C51.5783 49.632 51.781 48.992 51.781 48.16V44.064H53.477V52H51.973L51.845 50.608C51.5997 51.0987 51.237 51.488 50.757 51.776C50.2877 52.0533 49.7437 52.192 49.125 52.192ZM59.2125 52C58.4338 52 57.8152 51.8133 57.3565 51.44C56.8978 51.056 56.6685 50.3787 56.6685 49.408V45.488H55.3085V44.064H56.6685L56.8765 42.048H58.3645V44.064H60.6045V45.488H58.3645V49.408C58.3645 49.8453 58.4552 50.1493 58.6365 50.32C58.8285 50.48 59.1538 50.56 59.6125 50.56H60.5245V52H59.2125ZM65.9312 52C65.1526 52 64.5339 51.8133 64.0753 51.44C63.6166 51.056 63.3873 50.3787 63.3873 49.408V45.488H62.0273V44.064H63.3873L63.5952 42.048H65.0833V44.064H67.3232V45.488H65.0833V49.408C65.0833 49.8453 65.1739 50.1493 65.3552 50.32C65.5473 50.48 65.8726 50.56 66.3312 50.56H67.2433V52H65.9312ZM72.8309 52.192C72.0735 52.192 71.3909 52.0213 70.7829 51.68C70.1855 51.328 69.7109 50.8427 69.3589 50.224C69.0069 49.5947 68.8309 48.864 68.8309 48.032C68.8309 47.2 69.0069 46.4747 69.3589 45.856C69.7215 45.2267 70.2069 44.7413 70.8149 44.4C71.4229 44.048 72.1002 43.872 72.8469 43.872C73.6042 43.872 74.2815 44.048 74.8789 44.4C75.4869 44.7413 75.9669 45.2267 76.3189 45.856C76.6815 46.4747 76.8629 47.2 76.8629 48.032C76.8629 48.864 76.6815 49.5947 76.3189 50.224C75.9669 50.8427 75.4869 51.328 74.8789 51.68C74.2709 52.0213 73.5882 52.192 72.8309 52.192ZM72.8309 50.736C73.2362 50.736 73.6095 50.6347 73.9509 50.432C74.3029 50.2293 74.5855 49.9307 74.7989 49.536C75.0122 49.1307 75.1189 48.6293 75.1189 48.032C75.1189 47.4347 75.0122 46.9387 74.7989 46.544C74.5962 46.1387 74.3189 45.8347 73.9669 45.632C73.6255 45.4293 73.2522 45.328 72.8469 45.328C72.4415 45.328 72.0629 45.4293 71.7109 45.632C71.3695 45.8347 71.0922 46.1387 70.8789 46.544C70.6655 46.9387 70.5589 47.4347 70.5589 48.032C70.5589 48.6293 70.6655 49.1307 70.8789 49.536C71.0922 49.9307 71.3695 50.2293 71.7109 50.432C72.0522 50.6347 72.4255 50.736 72.8309 50.736ZM78.947 44.064H80.451L80.579 45.456C80.8243 44.9653 81.1817 44.5813 81.651 44.304C82.131 44.016 82.6803 43.872 83.299 43.872C84.259 43.872 85.011 44.1707 85.555 44.768C86.1097 45.3653 86.387 46.256 86.387 47.44V52H84.707V47.616C84.707 46.08 84.0777 45.312 82.819 45.312C82.1897 45.312 81.667 45.536 81.251 45.984C80.8457 46.432 80.643 47.072 80.643 47.904V52H78.947V44.064ZM95.6038 52V42.176H92.2918V40.8H100.596V42.176H97.2998V52H95.6038ZM104.643 52.192C103.865 52.192 103.171 52.0213 102.563 51.68C101.966 51.328 101.497 50.8427 101.155 50.224C100.814 49.6053 100.643 48.8853 100.643 48.064C100.643 47.232 100.809 46.5013 101.139 45.872C101.481 45.2427 101.95 44.752 102.547 44.4C103.155 44.048 103.859 43.872 104.659 43.872C105.438 43.872 106.115 44.048 106.691 44.4C107.267 44.7413 107.715 45.2 108.035 45.776C108.355 46.352 108.515 46.9867 108.515 47.68C108.515 47.7867 108.51 47.904 108.499 48.032C108.499 48.1493 108.494 48.2827 108.483 48.432H102.307C102.361 49.2 102.611 49.7867 103.059 50.192C103.518 50.5867 104.046 50.784 104.643 50.784C105.123 50.784 105.523 50.6773 105.843 50.464C106.174 50.24 106.419 49.9413 106.579 49.568H108.275C108.062 50.3147 107.635 50.9387 106.995 51.44C106.366 51.9413 105.582 52.192 104.643 52.192ZM104.643 45.264C104.078 45.264 103.577 45.4347 103.139 45.776C102.702 46.1067 102.435 46.608 102.339 47.28H106.819C106.787 46.6613 106.569 46.1707 106.163 45.808C105.758 45.4453 105.251 45.264 104.643 45.264ZM109.288 52L112.104 48.032L109.288 44.064H111.096L113.224 47.104L115.336 44.064H117.16L114.344 48.032L117.16 52H115.336L113.224 48.96L111.096 52H109.288ZM122.119 52C121.34 52 120.721 51.8133 120.263 51.44C119.804 51.056 119.575 50.3787 119.575 49.408V45.488H118.215V44.064H119.575L119.783 42.048H121.271V44.064H123.511V45.488H121.271V49.408C121.271 49.8453 121.361 50.1493 121.543 50.32C121.735 50.48 122.06 50.56 122.519 50.56H123.431V52H122.119Z" clip-rule="evenodd"/><path fill="#fff" d="M15 25V24H14V25H15ZM145 25H146V24H145V25ZM145 69V70H146V69H145ZM15 69H14V70H15V69ZM15 26H145V24H15V26ZM144 25V69H146V25H144ZM145 68H15V70H145V68ZM16 69V25H14V69H16Z"/></g><defs><clipPath id="clip0_391_14366"><rect width="96" height="96" fill="#fff"/></clipPath></defs></svg>

<svg xmlns="http://www.w3.org/2000/svg" width="96" height="96" fill="none" viewBox="0 0 96 96"><g clip-path="url(#a)"><path fill="#464C59" d="M0 0h96v96H0z"/><path fill="#fff" d="M15 25h130v44H15z"/><path fill="#232323" fill-rule="evenodd" d="M36.136 52V40.8h4.224q1.745 0 2.64.816.896.816.896 2.048 0 1.072-.576 1.712a2.9 2.9 0 0 1-1.392.848 2.7 2.7 0 0 1 1.136.512q.512.384.8.96t.288 1.248q0 .864-.432 1.568-.416.688-1.232 1.088t-2 .4zm1.696-6.4h2.32q.976 0 1.488-.448.512-.464.512-1.264 0-.785-.512-1.248-.495-.465-1.52-.464h-2.288zm0 5.008h2.432q1.024 0 1.584-.48.576-.48.576-1.344t-.592-1.36q-.592-.512-1.6-.512h-2.4zm11.293 1.584q-1.44 0-2.272-.896-.816-.896-.816-2.672v-4.56h1.696v4.384q0 2.304 1.888 2.304.945 0 1.552-.672t.608-1.92v-4.096h1.696V52h-1.504l-.128-1.392q-.368.735-1.088 1.168-.704.416-1.632.416M59.212 52q-1.167 0-1.856-.56-.687-.576-.687-2.032v-3.92h-1.36v-1.424h1.36l.208-2.016h1.487v2.016h2.24v1.424h-2.24v3.92q0 .656.273.912.287.24.975.24h.913V52zm6.72 0q-1.17 0-1.857-.56-.687-.576-.688-2.032v-3.92h-1.36v-1.424h1.36l.208-2.016h1.488v2.016h2.24v1.424h-2.24v3.92q0 .656.272.912.288.24.976.24h.912V52zm6.899.192q-1.136 0-2.048-.512a3.9 3.9 0 0 1-1.424-1.456q-.528-.944-.528-2.192t.528-2.176a3.8 3.8 0 0 1 1.456-1.456 4 4 0 0 1 2.032-.528q1.136 0 2.032.528a3.7 3.7 0 0 1 1.44 1.456q.543.928.544 2.176 0 1.248-.544 2.192a3.85 3.85 0 0 1-1.44 1.456q-.912.512-2.048.512m0-1.456q.607 0 1.12-.304.528-.304.848-.896.32-.608.32-1.504t-.32-1.488a2.1 2.1 0 0 0-.832-.912 2.15 2.15 0 0 0-1.12-.304q-.608 0-1.136.304-.512.304-.832.912-.32.592-.32 1.488t.32 1.504q.32.592.832.896t1.12.304m6.116-6.672h1.504l.128 1.392q.368-.736 1.072-1.152.72-.432 1.648-.432 1.44 0 2.256.896.832.896.832 2.672V52h-1.68v-4.384q0-2.304-1.888-2.304-.945 0-1.568.672-.608.672-.608 1.92V52h-1.696zM95.604 52v-9.824h-3.312V40.8h8.304v1.376H97.3V52zm9.039.192q-1.167 0-2.08-.512a3.8 3.8 0 0 1-1.408-1.456q-.512-.928-.512-2.16 0-1.248.496-2.192a3.75 3.75 0 0 1 1.408-1.472q.912-.528 2.112-.528 1.168 0 2.032.528.864.512 1.344 1.376t.48 1.904q0 .16-.016.352 0 .175-.016.4h-6.176q.08 1.152.752 1.76.688.592 1.584.592.72 0 1.2-.32.496-.336.736-.896h1.696q-.32 1.12-1.28 1.872-.944.752-2.352.752m0-6.928a2.38 2.38 0 0 0-1.504.512q-.656.495-.8 1.504h4.48q-.048-.929-.656-1.472-.608-.544-1.52-.544M109.288 52l2.816-3.968-2.816-3.968h1.808l2.128 3.04 2.112-3.04h1.824l-2.816 3.968L117.16 52h-1.824l-2.112-3.04-2.128 3.04zm12.831 0q-1.169 0-1.856-.56-.688-.576-.688-2.032v-3.92h-1.36v-1.424h1.36l.208-2.016h1.488v2.016h2.24v1.424h-2.24v3.92q0 .656.272.912.288.24.976.24h.912V52z" clip-rule="evenodd"/><path fill="#fff" d="M15 25v-1h-1v1zm130 0h1v-1h-1zm0 44v1h1v-1zM15 69h-1v1h1zm0-43h130v-2H15zm129-1v44h2V25zm1 43H15v2h130zM16 69V25h-2v44z"/></g><defs><clipPath id="a"><path fill="#fff" d="M0 0h96v96H0z"/></clipPath></defs></svg>
